studios/zdf/thumb.svg

<svg width="1000" height="562" viewBox="0 0 264.583 148.696" xmlns="http://www.w3.org/2000/svg">
    <path style="opacity:.98;fill:#fff;fill-opacity:1;stroke-width:1.61952" d="M0 0h264.583v148.696H0z"/>
    <path style="opacity:.98;fill:#fa7d19;fill-opacity:1;stroke-width:85.9894" d="M40 25a15 16 0 0 0-15 16v480a15 16 0 0 0 15 16h920a15 16 0 0 0 15-16V41a15 16 0 0 0-15-16H40zm12.5 12.5h895a15 16 0 0 1 15 16v455a15 16 0 0 1-15 16h-895a15 16 0 0 1-15-16v-455a15 16 0 0 1 15-16z" transform="scale(.26458)"/>
    <path d="M950.2-164.8H999V-188h-58.7c-31.6 0-44.6 17.7-44.6 45.4v2.7c-5.3-32.6-24.7-48.1-60.2-48.1H776c-24-48-73.5-81-130.9-81-80.6 0-146.1 65.5-146.1 146.2 0 80.7 65.5 146.1 146.1 146.1 57 0 106.3-32.5 130.4-80h60.7c14.5 0 27.6-.9 40.9-11.5 9.6-7.6 15.6-18.4 18.4-32.5v43.8h27.8v-51.5H989v-22.9h-65.8l.4-9.3c.1-15.1 4.7-24.2 26.6-24.2zM834.9-79.9h-30.7v-84.9h30.7c24.1 0 32.8 10.3 32.8 42.5 0 32.1-8.6 42.4-32.8 42.4z" style="fill:#fa7d19" transform="translate(-136.764 118.478) scale(.35922)"/>
    <path d="M709.8-133.7H728c14.4 0 22.9-2.9 22.9-15.1 0-12.6-8.5-16.1-23.3-16.1h-61.5V-188h71.6c36.3 0 41.5 25.4 41.5 39.6 0 15.1-6.2 39-41.5 39h-17.6c-22 0-26.7 7.9-26.7 23v7h82.2V-57H665.3v-32.5c0-27.8 13-44.2 44.5-44.2z" style="fill:#fff" transform="translate(-136.764 118.478) scale(.35922)"/>
</svg>

<?xml version="1.0" encoding="UTF-8" standalone="no"?>
<svg
   width="1000"
   height="562"
   viewBox="0 0 264.58333 148.69584"
   version="1.1"
   id="svg8"
   inkscape:version="1.1.2 (0a00cf5339, 2022-02-04, custom)"
   sodipodi:docname="thumb.svg"
   xmlns:inkscape="http://www.inkscape.org/namespaces/inkscape"
   xmlns:sodipodi="http://sodipodi.sourceforge.net/DTD/sodipodi-0.dtd"
   xmlns:xlink="http://www.w3.org/1999/xlink"
   xmlns="http://www.w3.org/2000/svg"
   xmlns:svg="http://www.w3.org/2000/svg"
   xmlns:rdf="http://www.w3.org/1999/02/22-rdf-syntax-ns#"
   xmlns:cc="http://creativecommons.org/ns#"
   xmlns:dc="http://purl.org/dc/elements/1.1/">
  <defs
     id="defs2">
    <inkscape:path-effect
       effect="fillet_chamfer"
       id="path-effect2883"
       is_visible="true"
       lpeversion="1"
       satellites_param="F,0,0,1,0,5.2916667,0,1 @ F,0,0,1,0,5.2916667,0,1 @ F,0,0,1,0,5.2916667,0,1 @ F,0,0,1,0,5.2916667,0,1"
       unit="px"
       method="auto"
       mode="F"
       radius="20"
       chamfer_steps="1"
       flexible="false"
       use_knot_distance="true"
       apply_no_radius="true"
       apply_with_radius="true"
       only_selected="false"
       hide_knots="false" />
    <inkscape:path-effect
       effect="fillet_chamfer"
       id="path-effect2864"
       is_visible="true"
       lpeversion="1"
       satellites_param="F,0,0,1,0,5.2916667,0,1 @ F,0,0,1,0,5.2916667,0,1 @ F,0,0,1,0,5.2916667,0,1 @ F,0,0,1,0,5.2916667,0,1"
       unit="px"
       method="auto"
       mode="F"
       radius="20"
       chamfer_steps="1"
       flexible="false"
       use_knot_distance="true"
       apply_no_radius="true"
       apply_with_radius="true"
       only_selected="false"
       hide_knots="false" />
    <inkscape:path-effect
       effect="fillet_chamfer"
       id="path-effect2862"
       is_visible="true"
       lpeversion="1"
       satellites_param="F,0,0,1,0,0,0,1 @ F,0,0,1,0,0,0,1 @ F,0,0,1,0,0,0,1 @ F,0,0,1,0,0,0,1"
       unit="px"
       method="auto"
       mode="F"
       radius="0"
       chamfer_steps="1"
       flexible="false"
       use_knot_distance="true"
       apply_no_radius="true"
       apply_with_radius="true"
       only_selected="false"
       hide_knots="false" />
    <inkscape:path-effect
       effect="fillet_chamfer"
       id="path-effect1088"
       is_visible="true"
       lpeversion="1"
       satellites_param="F,0,0,1,0,5.2916667,0,1 @ F,0,0,1,0,5.2916667,0,1 @ F,0,0,1,0,5.2916667,0,1 @ F,0,0,1,0,5.2916667,0,1"
       unit="px"
       method="auto"
       mode="F"
       radius="20"
       chamfer_steps="1"
       flexible="false"
       use_knot_distance="true"
       apply_no_radius="true"
       apply_with_radius="true"
       only_selected="false"
       hide_knots="false" />
    <inkscape:path-effect
       effect="fillet_chamfer"
       id="path-effect1308"
       is_visible="true"
       lpeversion="1"
       satellites_param="F,1,0,1,0,0.04,0,1 @ F,1,0,1,0,0.04,0,1 @ F,1,0,1,0,0.04,0,1 @ F,1,0,1,0,0.04,0,1"
       unit="px"
       method="auto"
       mode="F"
       radius="4"
       chamfer_steps="1"
       flexible="true"
       use_knot_distance="true"
       apply_no_radius="true"
       apply_with_radius="true"
       only_selected="false"
       hide_knots="false" />
    <inkscape:path-effect
       effect="fillet_chamfer"
       id="path-effect1306"
       is_visible="true"
       lpeversion="1"
       satellites_param="F,1,0,1,0,0.03,0,1 @ F,1,0,1,0,0.03,0,1 @ F,1,0,1,0,0.03,0,1 @ F,1,0,1,0,0.03,0,1"
       unit="px"
       method="auto"
       mode="F"
       radius="3"
       chamfer_steps="1"
       flexible="true"
       use_knot_distance="true"
       apply_no_radius="true"
       apply_with_radius="true"
       only_selected="false"
       hide_knots="false" />
    <inkscape:path-effect
       effect="fillet_chamfer"
       id="path-effect1210"
       is_visible="true"
       lpeversion="1"
       satellites_param="F,1,0,1,0,0.02,0,1 @ F,1,0,1,0,0.02,0,1 @ F,1,0,1,0,0.02,0,1 @ F,1,0,1,0,0.02,0,1"
       unit="px"
       method="auto"
       mode="F"
       radius="2"
       chamfer_steps="1"
       flexible="true"
       use_knot_distance="true"
       apply_no_radius="true"
       apply_with_radius="true"
       only_selected="false"
       hide_knots="false" />
    <inkscape:path-effect
       effect="fillet_chamfer"
       id="path-effect1191"
       is_visible="true"
       lpeversion="1"
       satellites_param="F,1,0,1,0,0.03,0,1 @ F,1,0,1,0,0.03,0,1 @ F,1,0,1,0,0.03,0,1 @ F,1,0,1,0,0.03,0,1"
       unit="px"
       method="auto"
       mode="F"
       radius="3"
       chamfer_steps="1"
       flexible="true"
       use_knot_distance="true"
       apply_no_radius="true"
       apply_with_radius="true"
       only_selected="false"
       hide_knots="false" />
    <linearGradient
       inkscape:collect="always"
       id="linearGradient847">
      <stop
         style="stop-color:#282828;stop-opacity:1"
         offset="0"
         id="stop843" />
      <stop
         style="stop-color:#191919;stop-opacity:1"
         offset="1"
         id="stop845" />
    </linearGradient>
    <radialGradient
       inkscape:collect="always"
       xlink:href="#linearGradient847"
       id="radialGradient849"
       cx="26.375103"
       cy="97.113945"
       fx="26.375103"
       fy="97.113945"
       r="132.29167"
       gradientTransform="matrix(0,1.1515333,-2.0099162,0,221.56598,-12.967733)"
       gradientUnits="userSpaceOnUse" />
  </defs>
  <sodipodi:namedview
     id="base"
     pagecolor="#757575"
     bordercolor="#666666"
     borderopacity="1.0"
     inkscape:pageopacity="1"
     inkscape:pageshadow="2"
     inkscape:zoom="0.5"
     inkscape:cx="92"
     inkscape:cy="547"
     inkscape:document-units="mm"
     inkscape:current-layer="g1287"
     inkscape:document-rotation="0"
     showgrid="false"
     units="px"
     inkscape:showpageshadow="false"
     inkscape:pagecheckerboard="false"
     inkscape:lockguides="true"
     inkscape:window-width="958"
     inkscape:window-height="1008"
     inkscape:window-x="953"
     inkscape:window-y="0"
     inkscape:window-maximized="0"
     showguides="true"
     inkscape:guide-bbox="true">
    <sodipodi:guide
       position="0,148.69584"
       orientation="0,1000"
       inkscape:locked="true"
       id="guide1270" />
    <sodipodi:guide
       position="264.58334,148.69584"
       orientation="562,0"
       inkscape:locked="true"
       id="guide1272" />
    <sodipodi:guide
       position="264.58334,0"
       orientation="0,-1000"
       inkscape:locked="true"
       id="guide1274" />
    <sodipodi:guide
       position="0,0"
       orientation="-562,0"
       inkscape:locked="true"
       id="guide1276" />
    <sodipodi:guide
       position="21.201605,127.26459"
       orientation="0,1"
       id="guide2557"
       inkscape:label=""
       inkscape:locked="true"
       inkscape:color="rgb(0,0,255)" />
    <sodipodi:guide
       position="-33.82728,21.43125"
       orientation="0,1"
       id="guide2559"
       inkscape:label=""
       inkscape:locked="true"
       inkscape:color="rgb(0,0,255)" />
    <sodipodi:guide
       position="39.687501,148.69584"
       orientation="-1,0"
       id="guide2561"
       inkscape:label=""
       inkscape:locked="true"
       inkscape:color="rgb(0,0,255)" />
    <sodipodi:guide
       position="224.89584,148.69584"
       orientation="-1,0"
       id="guide2563"
       inkscape:label=""
       inkscape:locked="true"
       inkscape:color="rgb(0,0,255)" />
  </sodipodi:namedview>
  <metadata
     id="metadata5">
    <rdf:RDF>
      <cc:Work
         rdf:about="">
        <dc:format>image/svg+xml</dc:format>
        <dc:type
           rdf:resource="http://purl.org/dc/dcmitype/StillImage" />
      </cc:Work>
    </rdf:RDF>
  </metadata>
  <g
     inkscape:label="Layer 1"
     inkscape:groupmode="layer"
     id="layer1">
    <rect
       style="opacity:0.98;fill:url(#radialGradient849);fill-opacity:1;stroke-width:1.61952"
       id="rect841"
       width="264.58334"
       height="148.69583"
       x="-5.0862632e-06"
       y="-4.7961635e-14" />
    <g
       id="g1287"
       transform="matrix(0.74999998,0,0,0.79999997,33.07292,-84.402071)">
      <path
         id="rect2860"
         style="opacity:0.98;fill:#fa7d19;fill-opacity:1;stroke-width:85.9894"
         d="M 40 25 A 15 16 0 0 0 25 41 L 25 521 A 15 16 0 0 0 40 537 L 960 537 A 15 16 0 0 0 975 521 L 975 41 A 15 16 0 0 0 960 25 L 40 25 z M 52.5 37.5 L 947.5 37.5 A 15 16 0 0 1 962.5 53.5 L 962.5 508.5 A 15 16 0 0 1 947.5 524.5 L 52.5 524.5 A 15 16 0 0 1 37.5 508.5 L 37.5 53.5 A 15 16 0 0 1 52.5 37.5 z "
         transform="matrix(0.35277779,0,0,0.33072918,-44.097228,105.50259)" />
      <g
         id="g3149"
         transform="matrix(0.4792307,0,0,0.44927879,-225.12899,255.84332)">
        <g
           id="Ebene_13"
           class="st0"
           transform="translate(-3,-3)">
	<rect
   x="496"
   y="-272"
   class="st1"
   width="1024"
   height="576"
   id="rect4" />

</g>
        <g
           id="ZDFsport_x5F_de"
           transform="translate(-3,-3)">
	<g
   id="g13">
		<path
   class="st2"
   d="M 950.2,-164.8 H 999 V -188 h -58.7 c -31.6,0 -44.6,17.7 -44.6,45.4 v 2.7 C 890.4,-172.5 871,-188 835.5,-188 H 776 c -24,-48 -73.5,-81 -130.9,-81 -80.6,0 -146.1,65.5 -146.1,146.2 0,80.7 65.5,146.1 146.1,146.1 57,0 106.3,-32.5 130.4,-80 h 60.7 c 14.5,0 27.6,-0.9 40.9,-11.5 9.6,-7.6 15.6,-18.4 18.4,-32.5 v 43.8 h 27.8 v -51.5 H 989 v -22.9 h -65.8 l 0.4,-9.3 c 0.1,-15.1 4.7,-24.2 26.6,-24.2 z m -115.3,84.9 h -30.7 v -84.9 h 30.7 c 24.1,0 32.8,10.3 32.8,42.5 0,32.1 -8.6,42.4 -32.8,42.4 z"
   id="path7" />

		<g
   id="g11">
			<path
   class="st3"
   d="M 709.8,-133.7 H 728 c 14.4,0 22.9,-2.9 22.9,-15.1 0,-12.6 -8.5,-16.1 -23.3,-16.1 H 666.1 V -188 h 71.6 c 36.3,0 41.5,25.4 41.5,39.6 0,15.1 -6.2,39 -41.5,39 h -17.6 c -22,0 -26.7,7.9 -26.7,23 v 7 h 82.2 V -57 H 665.3 v -32.5 c 0,-27.8 13,-44.2 44.5,-44.2 z"
   id="path9" />

		</g>

	</g>

</g>
      </g>
    </g>
  </g>
  <style
     type="text/css"
     id="style2">
	.st0{display:none;}
	.st1{display:inline;fill:#7D7D7D;}
	.st2{fill:#FA7D19;}
	.st3{fill:#FFFFFF;}
</style>
</svg>
